X: 1
T: Paddy O'Rafferty
M: 6/8
L: 1/8
R: jig
K: Dmaj
dff cee|def gfe|dff cee|dfe dBA| 
dff cee|def g2e|f/g/af gfe|1 dfe dBA:|2 dfe dcB||
|:AFA ~B3|gfe fdB|AFA B2c|dfe dcB|
AFA ~B3|efe efg|f/g/af gfe|1 dfe dcB:|2 dfe dBA||
|:fAA eAA|def gfe|fAA eAA|dfe dBA| 
fAA eAA|def g2e|f/g/af gfe|dfe dBA:|
